X: 11473
Q: "Slowly."
M: C
L: 1/8
K: G
(DE)(GA) (BA)(Bd) | (e>g)(d>g) B3g |]
a |\
(ba)(ge) (d>e)(ge) | (dB)(A>G) {B}A2(GE) |\
(g>a)(ge) (de)(ge) | (eB)(dG) B2ga |\
(ba)(ge) (de)(ga) | (ge)(dB) A3/B//c// (BA) |\


